X: 1
T: Kale an Knockit Coarn
T: The Bob of Fettercairn
O: Shetland
B: Tom Anderson & Pam Swing "Haand me doon da fiddle" 1979 #43 ISBN 0 901636 25 8
R: reel
Z: 2011 John Chambers <jc:trillian.mit.edu>
M: C|
L: 1/8
K: G
{f}g |\
G2(uBG) dGBuG | {D}uGz G,z {f}ug2(fg) | (3AAA ^cA e(uAcA) | edef g2(fg) |
G<G BG dGBG | {D}.Gz .G,z {f}g2fg | aefd e(udBG) | Ac BA G2{f}g2 :|
|:\
dgBg dgBg | dBdg f2(ued) | e^cac ecac | edef g2(ufg) |
dgBg dgBg | dBdg f2(uef) | aefd edBG | A<A Bd e2g2 :|
% %begintext align
N: Da name o' dis t\"un is an auld Shetland mael.  It translates as, "Cabbage and Bruised Oats."
N: The  "k" in knockit is pronounced, which wis da wye wi aa words beginning wi "kn" in Shetland
N: ida auld days. Dis is really no a Shetland t\"un ava.  He's Scottish an his real name is "Bob
N: o'  Fettercairn",  but  he's been played dat lang aa ower Shetland an dey're dat mony wyes o'
N: him at maist Scots widna ken him noo.
%%endtext
